X:1
T: The Cambro Britons 3
N:
C:
S:
A:
O:
R:
M:2/4
K:D
I:speed 112
K:D
M:2/4
L:1/16
d2 c d d2 D2 | d2 c d d2 D2 | d2 c B A2 G F | E2 E2 E4 |\
d2 c d d2 D2 | d2 c d d2 D2 | f2 g2 e2 f2 | d3 e d4 |
d2 c d d2 D2 | d2 c d d2 D2 | d2 c B A2 G F | E2 E2 E4 |\
d2 c d d2 D2 | d2 c d d2 D2 | f2 g2 e2 f2 | d3 e d4 |
f6 a2 | d6 f2 | f2 e2 d2 c2 | d4 D4 |\
f6 a2 | d6 f2 | f2 e2 d2 c2 | d2 A2 D4 |
f6 a2 | d6 f2 | f2 e2 d2 c2 | d4 D4 |\
f6 a2 | d6 f2 | f2 e2 d2 c2 | d2 A2 D4 |]
